src/images_karasa_jaga_svg/cmd/sc_hidecolumn.svg

<svg height="16" width="16" xmlns="http://www.w3.org/2000/svg" xmlns:xlink="http://www.w3.org/1999/xlink"><linearGradient id="a" gradientTransform="matrix(1.5000376 0 0 1 11.999997 -13.334003)" gradientUnits="userSpaceOnUse" spreadMethod="pad" x1="53.332001" x2="53.332001" y1="101.334" y2="117.3336"><stop offset="0" stop-color="#a1691e" stop-opacity=".988235"/><stop offset="1" stop-color="#a26d20" stop-opacity="0"/></linearGradient><linearGradient id="b" gradientTransform="matrix(1.5000376 0 0 1 11.999997 -13.334003)" gradientUnits="userSpaceOnUse" x1="53.332001" x2="53.332001" xlink:href="#a" y1="101.334" y2="117.3336"/><linearGradient id="c" gradientUnits="userSpaceOnUse" x1="90.305084" x2="89.830505" xlink:href="#a" y1="90.033852" y2="101.78497"/><linearGradient id="d" gradientTransform="matrix(1.0769499 0 0 1.3043803 2.256411 -24.351998)" gradientUnits="userSpaceOnUse" x1="46.048" x2="46.048" y1="128.01709" y2="16.6203"><stop offset="0" stop-color="#c7cdd7"/><stop offset="1" stop-color="#fff"/></linearGradient><linearGradient id="e" gradientTransform="matrix(1.07695 0 0 1.3091052 -3.487181 -52.656871)" gradientUnits="userSpaceOnUse" x1="114.6638" x2="114.6638" y1="101.334" y2="112.0004"><stop offset="0" stop-color="#e2e5ea"/><stop offset="1" stop-color="#e2e5ea" stop-opacity="0"/></linearGradient><linearGradient id="f" gradientTransform="matrix(1.5000376 0 0 1 35.999997 -1.334509)" gradientUnits="userSpaceOnUse" x1="53.332001" x2="53.332001" xlink:href="#h" y1="101.334" y2="117.3336"/><linearGradient id="g" gradientTransform="matrix(2 0 0 1.2 112 -25.599999)" gradientUnits="userSpaceOnUse" x1="8" x2="8" xlink:href="#h" y1="88" y2="108"/><linearGradient id="h"><stop offset="0"/><stop offset="1" stop-opacity="0"/></linearGradient><linearGradient id="i" gradientUnits="userSpaceOnUse" x1="117.37973" x2="128" y1="-47.681248" y2="40"><stop offset="0" stop-color="#fff"/><stop offset="1" stop-color="#555"/></linearGradient><linearGradient id="j" gradientTransform="matrix(.30769997 0 0 1.3043803 46.358974 -24.351998)" gradientUnits="userSpaceOnUse" x1="46.048" x2="46.048" y1="128.01709" y2="16.6203"><stop offset="0" stop-color="#fdfaeb"/><stop offset="1" stop-color="#ffe1a5"/></linearGradient><linearGradient id="k" gradientTransform="matrix(.3077 0 0 1.3091052 44.717949 -52.656871)" gradientUnits="userSpaceOnUse" x1="114.6638" x2="114.6638" y1="101.334" y2="112.0004"><stop offset="0" stop-color="#feeec8"/><stop offset="1" stop-color="#feeec9" stop-opacity="0"/></linearGradient><g transform="matrix(.125 0 0 .125 0 .996411)"><path d="m8 80h112v17.4543h-112z" fill="url(#e)" opacity=".764706"/><path d="m8 0h112v80h-112z" fill="url(#d)"/><text x="552.36987" y="202.81038"><tspan fill="#555" x="552.36987" y="219.61037"/></text><path d="m112 99.999496h4v15.999604h-4z" fill="url(#f)" transform="matrix(-2 0 0 1.5000375 232 -70.002993)"/><path d="m88 88h4v15.9996h-4z" fill="url(#c)" transform="matrix(-2 0 0 1.5000375 264 -52.003297)"/><path d="m120 80h8v24h-8z" fill="url(#g)"/><text x="284.18808" y="202.81038"><tspan fill="#555" x="284.18808" y="219.61037"/></text><text x="-10.252362" y="133.87732"><tspan fill="#555" x="-10.252362" y="150.67731"/></text><text x="161.66467" y="-39.856026"><tspan fill="#555" x="161.66467" y="-23.056038"/></text><path d="m88 88h4v15.9996h-4z" fill="url(#b)" transform="matrix(-2 0 0 1.5000375 224 -52.003297)"/><path d="m0 0v4 20 4 20 4 26.3125 1.6875h8 32 8 32 8 32 8v-1.6875-78.3125h-120zm8 4h32v20h-32zm40 0h32v20h-32zm40 0h32v20h-32zm-80 24h32v20h-32zm40 0h32v20h-32zm40 0h32v20h-32zm-80 24h32v26.3125h-32zm40 0h32v26.3125h-32zm40 0h32v26.3125h-32z" fill="url(#i)"/><text x="681.37421" y="191.74835"><tspan fill="#555" x="681.37421" y="208.54834"/></text><text x="386.93372" y="122.81529"><tspan fill="#555" x="386.93372" y="139.61528"/></text><text x="916.79553" y="269.00107"><tspan fill="#555" x="916.79553" y="285.80106"/></text><path d="m48 0h32v80h-32z" fill="url(#j)"/><path d="m40 0v4 20 4 20 4 26.3125 1.6875h8 32 8v-1.6875-26.3125-4-20-4-20-4zm8 4h32v20h-32zm0 24h32v20h-32zm0 24h32v26.3125h-32z" fill="#bf5e00"/><path d="m48 80h32v17.4543h-32z" fill="url(#k)" opacity=".764706"/></g><g transform="matrix(.125 0 0 .125 0 -.003589)"><path d="m0 8v5.627129 98.372881l40-.00001 49.537109-93.687324 3.757813-10.2167971z" fill="#525252" opacity=".57"/><path d="m27.172553 123.63746c3.000001 1.50002 5.702 2.85196 8.839998 4.41997 3.104003-6.718 58.597162-117.099744 61.517165-123.4276937-3.002003-1.5000189-5.704003-2.8520315-8.842001-4.4200063-3.102002 6.7180347-58.595163 117.10171-61.515162 123.42773z" fill="#555" stroke-width="2"/></g></svg>

<?xml version="1.0" encoding="UTF-8" standalone="no"?>
<svg
   xmlns:dc="http://purl.org/dc/elements/1.1/"
   xmlns:cc="http://creativecommons.org/ns#"
   xmlns:rdf="http://www.w3.org/1999/02/22-rdf-syntax-ns#"
   xmlns:svg="http://www.w3.org/2000/svg"
   xmlns="http://www.w3.org/2000/svg"
   xmlns:xlink="http://www.w3.org/1999/xlink"
   xmlns:sodipodi="http://sodipodi.sourceforge.net/DTD/sodipodi-0.dtd"
   xmlns:inkscape="http://www.inkscape.org/namespaces/inkscape"
   height="128"
   width="128"
   version="1.1"
   id="svg110"
   sodipodi:docname="sc_hidecolumn.svg"
   inkscape:version="0.92.3 (unknown)"
   inkscape:export-filename="/home/rizmut/Dokumen/Rizmut/Github/libreoffice-style-karasa-jaga/build/images_karasa_jaga/cmd/sc_hidecolumn.png"
   inkscape:export-xdpi="12"
   inkscape:export-ydpi="12">
  <metadata
     id="metadata116">
    <rdf:RDF>
      <cc:Work
         rdf:about="">
        <dc:format>image/svg+xml</dc:format>
        <dc:type
           rdf:resource="http://purl.org/dc/dcmitype/StillImage" />
        <dc:title></dc:title>
      </cc:Work>
    </rdf:RDF>
  </metadata>
  <defs
     id="defs114">
    <linearGradient
       y2="117.3336"
       y1="101.334"
       x2="53.332001"
       x1="53.332001"
       gradientUnits="userSpaceOnUse"
       gradientTransform="matrix(1.5000376,0,0,1,11.999997,-13.334003)"
       id="linearGradient1020"
       spreadMethod="pad">
      <stop
         id="stop1016"
         stop-opacity=".988235"
         stop-color="#58a11e"
         offset="0"
         style="stop-color:#a1751e;stop-opacity:0.98823529" />
      <stop
         id="stop1018"
         stop-opacity="0"
         stop-color="#59a220"
         offset="1" />
    </linearGradient>
    <linearGradient
       y2="117.3336"
       y1="101.334"
       x2="53.332001"
       x1="53.332001"
       gradientUnits="userSpaceOnUse"
       gradientTransform="matrix(1.5000376,0,0,1,11.999997,-13.334003)"
       id="linearGradient1014"
       spreadMethod="pad">
      <stop
         id="stop1010"
         stop-opacity=".988235"
         stop-color="#58a11e"
         offset="0"
         style="stop-color:#a1751e;stop-opacity:0.988235" />
      <stop
         id="stop1012"
         stop-opacity="0"
         stop-color="#59a220"
         offset="1" />
    </linearGradient>
    <linearGradient
       y2="117.3336"
       y1="101.334"
       x2="53.332001"
       x1="53.332001"
       gradientUnits="userSpaceOnUse"
       gradientTransform="matrix(1.5000376,0,0,1,11.999997,-13.334003)"
       id="linearGradient1008"
       spreadMethod="pad">
      <stop
         id="stop1004"
         stop-opacity=".988235"
         stop-color="#58a11e"
         offset="0"
         style="stop-color:#a1891e;stop-opacity:0.988235" />
      <stop
         id="stop1006"
         stop-opacity="0"
         stop-color="#59a220"
         offset="1" />
    </linearGradient>
    <linearGradient
       y2="117.3336"
       y1="101.334"
       x2="53.332001"
       x1="53.332001"
       gradientUnits="userSpaceOnUse"
       gradientTransform="matrix(1.5000376,0,0,1,11.999997,-13.334003)"
       id="linearGradient1002"
       spreadMethod="pad">
      <stop
         id="stop998"
         stop-opacity=".988235"
         stop-color="#58a11e"
         offset="0"
         style="stop-color:#a1941e;stop-opacity:0.988235" />
      <stop
         id="stop1000"
         stop-opacity="0"
         stop-color="#59a220"
         offset="1" />
    </linearGradient>
    <linearGradient
       y2="117.3336"
       y1="101.334"
       x2="53.332001"
       x1="53.332001"
       gradientUnits="userSpaceOnUse"
       gradientTransform="matrix(1.5000376,0,0,1,11.999997,-13.334003)"
       id="linearGradient996"
       spreadMethod="pad">
      <stop
         id="stop992"
         stop-opacity=".988235"
         stop-color="#58a11e"
         offset="0"
         style="stop-color:#a19a1e;stop-opacity:0.988235" />
      <stop
         id="stop994"
         stop-opacity="0"
         stop-color="#59a220"
         offset="1" />
    </linearGradient>
    <linearGradient
       y2="117.3336"
       y1="101.334"
       x2="53.332001"
       x1="53.332001"
       gradientUnits="userSpaceOnUse"
       gradientTransform="matrix(1.5000376,0,0,1,11.999997,-13.334003)"
       id="linearGradient990"
       spreadMethod="pad">
      <stop
         id="stop986"
         stop-opacity=".988235"
         stop-color="#58a11e"
         offset="0"
         style="stop-color:#9fa11e;stop-opacity:0.988235" />
      <stop
         id="stop988"
         stop-opacity="0"
         stop-color="#59a220"
         offset="1" />
    </linearGradient>
    <linearGradient
       y2="117.3336"
       y1="101.334"
       x2="53.332001"
       x1="53.332001"
       gradientUnits="userSpaceOnUse"
       gradientTransform="matrix(1.5000376,0,0,1,11.999997,-13.334003)"
       id="linearGradient984"
       spreadMethod="pad">
      <stop
         id="stop980"
         stop-opacity=".988235"
         stop-color="#58a11e"
         offset="0"
         style="stop-color:#9ca11e;stop-opacity:0.988235" />
      <stop
         id="stop982"
         stop-opacity="0"
         stop-color="#59a220"
         offset="1" />
    </linearGradient>
    <linearGradient
       y2="117.3336"
       y1="101.334"
       x2="53.332001"
       x1="53.332001"
       gradientUnits="userSpaceOnUse"
       gradientTransform="matrix(1.5000376,0,0,1,11.999997,-13.334003)"
       id="linearGradient978"
       spreadMethod="pad">
      <stop
         id="stop974"
         stop-opacity=".988235"
         stop-color="#58a11e"
         offset="0"
         style="stop-color:#82a11e;stop-opacity:0.988235" />
      <stop
         id="stop976"
         stop-opacity="0"
         stop-color="#59a220"
         offset="1" />
    </linearGradient>
    <linearGradient
       y2="117.3336"
       y1="101.334"
       x2="53.332001"
       x1="53.332001"
       gradientUnits="userSpaceOnUse"
       gradientTransform="matrix(1.5000376,0,0,1,11.999997,-13.334003)"
       id="linearGradient972"
       spreadMethod="pad">
      <stop
         id="stop968"
         stop-opacity=".988235"
         stop-color="#58a11e"
         offset="0"
         style="stop-color:#7ca11e;stop-opacity:0.988235" />
      <stop
         id="stop970"
         stop-opacity="0"
         stop-color="#59a220"
         offset="1" />
    </linearGradient>
    <linearGradient
       y2="117.3336"
       y1="101.334"
       x2="53.332001"
       x1="53.332001"
       gradientUnits="userSpaceOnUse"
       gradientTransform="matrix(1.5000376,0,0,1,11.999997,-13.334003)"
       id="linearGradient964"
       spreadMethod="pad">
      <stop
         id="stop960"
         stop-opacity=".988235"
         stop-color="#58a11e"
         offset="0"
         style="stop-color:#a1691e;stop-opacity:0.988235" />
      <stop
         id="stop962"
         stop-opacity="0"
         stop-color="#59a220"
         offset="1"
         style="stop-color:#a26d20;stop-opacity:0" />
    </linearGradient>
    <linearGradient
       y2="117.3336"
       y1="101.334"
       x2="53.332001"
       x1="53.332001"
       gradientUnits="userSpaceOnUse"
       gradientTransform="matrix(1.5000376,0,0,1,11.999997,-13.334003)"
       id="linearGradient958"
       spreadMethod="pad">
      <stop
         id="stop954"
         stop-opacity=".988235"
         stop-color="#58a11e"
         offset="0"
         style="stop-color:#bf5e00;stop-opacity:1" />
      <stop
         id="stop956"
         stop-opacity="0"
         stop-color="#59a220"
         offset="1" />
    </linearGradient>
    <linearGradient
       y2="117.3336"
       y1="101.334"
       x2="53.332001"
       x1="53.332001"
       gradientUnits="userSpaceOnUse"
       gradientTransform="matrix(1.5000376,0,0,1,11.999997,-13.334003)"
       id="linearGradient952"
       spreadMethod="pad">
      <stop
         id="stop948"
         stop-opacity=".988235"
         stop-color="#58a11e"
         offset="0"
         style="stop-color:#bf5e00;stop-opacity:1" />
      <stop
         id="stop950"
         stop-opacity="0"
         stop-color="#59a220"
         offset="1" />
    </linearGradient>
    <linearGradient
       y2="117.3336"
       y1="101.334"
       x2="53.332001"
       x1="53.332001"
       gradientUnits="userSpaceOnUse"
       gradientTransform="matrix(1.5000376 0 0 1 11.999997 -13.334003)"
       id="linearGradient946">
      <stop
         id="stop942"
         stop-opacity=".988235"
         stop-color="#58a11e"
         offset="0"
         style="stop-color:#bf5e00;stop-opacity:1" />
      <stop
         id="stop944"
         stop-opacity="0"
         stop-color="#59a220"
         offset="1" />
    </linearGradient>
    <linearGradient
       inkscape:collect="always"
       xlink:href="#linearGradient964"
       id="linearGradient1022"
       gradientUnits="userSpaceOnUse"
       gradientTransform="matrix(1.5000376,0,0,1,11.999997,-13.334003)"
       x1="53.332001"
       y1="101.334"
       x2="53.332001"
       y2="117.3336" />
    <linearGradient
       inkscape:collect="always"
       xlink:href="#linearGradient964"
       id="linearGradient1030"
       x1="90.305084"
       y1="90.033852"
       x2="89.830505"
       y2="101.78497"
       gradientUnits="userSpaceOnUse" />
  </defs>
  <sodipodi:namedview
     pagecolor="#ffffff"
     bordercolor="#666666"
     borderopacity="1"
     objecttolerance="10"
     gridtolerance="10"
     guidetolerance="10"
     inkscape:pageopacity="0"
     inkscape:pageshadow="2"
     inkscape:window-width="1366"
     inkscape:window-height="706"
     id="namedview112"
     showgrid="true"
     inkscape:zoom="2.6074563"
     inkscape:cx="65.741631"
     inkscape:cy="73.553172"
     inkscape:window-x="0"
     inkscape:window-y="0"
     inkscape:window-maximized="1"
     inkscape:current-layer="svg110">
    <inkscape:grid
       type="xygrid"
       id="grid1040"
       spacingx="4"
       spacingy="4"
       empspacing="2" />
  </sodipodi:namedview>
  <linearGradient
     id="a"
     gradientTransform="matrix(1.0769499,0,0,1.3043803,2.256411,-24.351998)"
     gradientUnits="userSpaceOnUse"
     x1="46.048"
     x2="46.048"
     y1="128.01709"
     y2="16.6203">
    <stop
       offset="0"
       stop-color="#c7cdd7"
       id="stop2" />
    <stop
       offset="1"
       stop-color="#fff"
       id="stop4" />
  </linearGradient>
  <linearGradient
     id="b"
     gradientTransform="matrix(1.07695,0,0,1.3091052,-3.487181,-52.656871)"
     gradientUnits="userSpaceOnUse"
     x1="114.6638"
     x2="114.6638"
     y1="101.334"
     y2="112.0004">
    <stop
       offset="0"
       stop-color="#e2e5ea"
       id="stop7" />
    <stop
       offset="1"
       stop-color="#e2e5ea"
       stop-opacity="0"
       id="stop9" />
  </linearGradient>
  <linearGradient
     id="c"
     gradientTransform="matrix(1.5000376,0,0,1,35.999997,-1.334509)"
     gradientUnits="userSpaceOnUse"
     x1="53.332001"
     x2="53.332001"
     xlink:href="#f"
     y1="101.334"
     y2="117.3336" />
  <linearGradient
     id="d"
     gradientTransform="matrix(1.5000376,0,0,1,11.999997,-13.334003)"
     gradientUnits="userSpaceOnUse"
     x1="53.332001"
     x2="53.332001"
     y1="101.334"
     y2="117.3336"
     xlink:href="#linearGradient964">
    <stop
       offset="0"
       stop-color="#58a11e"
       stop-opacity=".988235"
       id="stop13" />
    <stop
       offset="1"
       stop-color="#59a220"
       stop-opacity="0"
       id="stop15" />
  </linearGradient>
  <linearGradient
     id="e"
     gradientTransform="matrix(2,0,0,1.2,112,-25.599999)"
     gradientUnits="userSpaceOnUse"
     x1="8"
     x2="8"
     xlink:href="#f"
     y1="88"
     y2="108" />
  <linearGradient
     id="f">
    <stop
       offset="0"
       id="stop19" />
    <stop
       offset="1"
       stop-opacity="0"
       id="stop21" />
  </linearGradient>
  <linearGradient
     id="g"
     gradientUnits="userSpaceOnUse"
     x1="117.37973"
     x2="128"
     y1="-47.681246"
     y2="40">
    <stop
       offset="0"
       stop-color="#fff"
       id="stop24" />
    <stop
       offset="1"
       stop-color="#555"
       id="stop26" />
  </linearGradient>
  <filter
     id="h"
     color-interpolation-filters="sRGB"
     height="1.306617"
     width="1.43589"
     x="-.217945"
     y="-.153309">
    <feGaussianBlur
       stdDeviation="3.1542391"
       id="feGaussianBlur29" />
  </filter>
  <linearGradient
     id="i"
     gradientUnits="userSpaceOnUse"
     x1="32.81356"
     x2="28.745761"
     y1="44.474576"
     y2="19.254237">
    <stop
       offset="0"
       stop-color="#070707"
       id="stop32" />
    <stop
       offset="1"
       stop-color="#474747"
       id="stop34" />
  </linearGradient>
  <linearGradient
     id="j"
     gradientTransform="matrix(0.30769997,0,0,1.3043803,46.358974,-24.351998)"
     gradientUnits="userSpaceOnUse"
     x1="46.048"
     x2="46.048"
     y1="128.01709"
     y2="16.6203">
    <stop
       offset="0"
       stop-color="#f2fdeb"
       id="stop37"
       style="stop-color:#fdfaeb;stop-opacity:1" />
    <stop
       offset="1"
       stop-color="#c8ffa5"
       id="stop39"
       style="stop-color:#ffe1a5;stop-opacity:1" />
  </linearGradient>
  <linearGradient
     id="k"
     gradientTransform="matrix(0.3077,0,0,1.3091052,44.717949,-52.656871)"
     gradientUnits="userSpaceOnUse"
     x1="114.6638"
     x2="114.6638"
     y1="101.334"
     y2="112.0004">
    <stop
       offset="0"
       stop-color="#ddfec8"
       id="stop42"
       style="stop-color:#feeec8;stop-opacity:1" />
    <stop
       offset="1"
       stop-color="#dffecb"
       stop-opacity="0"
       id="stop44"
       style="stop-color:#feeec9;stop-opacity:0" />
  </linearGradient>
  <linearGradient
     id="l"
     gradientUnits="userSpaceOnUse"
     x1="117.37973"
     x2="128"
     y1="-47.681246"
     y2="40">
    <stop
       offset="0"
       stop-color="#5ca524"
       id="stop47" />
    <stop
       offset="1"
       stop-color="#58a11e"
       stop-opacity=".986274"
       id="stop49" />
  </linearGradient>
  <g
     id="g1070"
     transform="translate(0,8)">
    <path
       id="path52"
       d="M 8,80 H 120 V 97.4543 H 8 Z"
       style="opacity:0.764706;fill:url(#b)"
       inkscape:connector-curvature="0" />
    <path
       id="path54"
       d="M 8,0 H 120 V 80 H 8 Z"
       style="fill:url(#a)"
       inkscape:connector-curvature="0" />
    <text
       id="text58"
       y="202.81038"
       x="552.36987">
      <tspan
         id="tspan56"
         y="219.61037"
         x="552.36987"
         style="fill:#555555" />
    </text>
    <path
       id="path62"
       transform="matrix(-2,0,0,1.5000375,232,-70.002993)"
       d="m 112,99.999496 h 4 V 115.9991 h -4 z"
       style="fill:url(#c)"
       inkscape:connector-curvature="0" />
    <path
       style="fill:url(#linearGradient1030);fill-opacity:1"
       id="path64"
       transform="matrix(-2,0,0,1.5000375,264,-52.003297)"
       d="m 88,88 h 4 v 15.9996 h -4 z"
       inkscape:connector-curvature="0" />
    <path
       id="path66"
       d="m 120,80 h 8 v 24 h -8 z"
       style="fill:url(#e)"
       inkscape:connector-curvature="0" />
    <text
       id="text70"
       y="202.81038"
       x="284.18808">
      <tspan
         id="tspan68"
         y="219.61037"
         x="284.18808"
         style="fill:#555555" />
    </text>
    <text
       id="text74"
       y="133.87732"
       x="-10.252362">
      <tspan
         id="tspan72"
         y="150.67731"
         x="-10.252362"
         style="fill:#555555" />
    </text>
    <text
       id="text78"
       y="-39.856026"
       x="161.66467">
      <tspan
         id="tspan76"
         y="-23.056038"
         x="161.66467"
         style="fill:#555555" />
    </text>
    <path
       style="fill:url(#linearGradient1022);fill-opacity:1"
       transform="matrix(-2,0,0,1.5000375,224,-52.003297)"
       id="path80"
       d="m 88,88 h 4 v 15.9996 h -4 z"
       inkscape:connector-curvature="0" />
    <path
       id="path82"
       d="M 0,0 V 4 24 28 48 52 78.3125 80 h 8 32 8 32 8 32 8 V 78.3125 0 H 8 Z M 8,4 H 40 V 24 H 8 Z M 48,4 H 80 V 24 H 48 Z m 40,0 h 32 V 24 H 88 Z M 8,28 H 40 V 48 H 8 Z m 40,0 H 80 V 48 H 48 Z m 40,0 h 32 V 48 H 88 Z M 8,52 H 40 V 78.3125 H 8 Z m 40,0 H 80 V 78.3125 H 48 Z m 40,0 h 32 V 78.3125 H 88 Z"
       style="fill:url(#g)"
       inkscape:connector-curvature="0" />
    <text
       id="text86"
       y="191.74835"
       x="681.37421">
      <tspan
         id="tspan84"
         y="208.54834"
         x="681.37421"
         style="fill:#555555" />
    </text>
    <text
       id="text90"
       y="122.81529"
       x="386.93372">
      <tspan
         id="tspan88"
         y="139.61528"
         x="386.93372"
         style="fill:#555555" />
    </text>
    <text
       id="text94"
       y="269.00107"
       x="916.79553">
      <tspan
         id="tspan92"
         y="285.80106"
         x="916.79553"
         style="fill:#555555" />
    </text>
    <path
       id="path96"
       d="M 48,0 H 80 V 80 H 48 Z"
       style="fill:url(#j)"
       inkscape:connector-curvature="0" />
    <path
       style="fill:#bf5e00"
       id="path98"
       d="M 40,0 V 4 24 28 48 52 78.3125 80 h 8 32 8 V 78.3125 52 48 28 24 4 0 Z m 8,4 H 80 V 24 H 48 Z m 0,24 H 80 V 48 H 48 Z m 0,24 H 80 V 78.3125 H 48 Z"
       inkscape:connector-curvature="0" />
    <path
       id="path100"
       d="M 48,80 H 80 V 97.4543 H 48 Z"
       style="opacity:0.764706;fill:url(#k)"
       inkscape:connector-curvature="0" />
  </g>
  <g
     id="g1044">
    <path
       id="path2673"
       d="m 0,8 v 5.627129 98.372881 L 40,112 89.537109,18.312676 93.294922,8.0958789 Z"
       style="opacity:0.56999966;fill:#525252;fill-opacity:1;stroke:none;stroke-width:11.63639927;stroke-miterlimit:4;stroke-dasharray:none;stroke-opacity:1"
       inkscape:connector-curvature="0"
       sodipodi:nodetypes="ccccccc" />
    <path
       sodipodi:nodetypes="ccccc"
       style="fill:#555555;stroke-width:1.99999988"
       id="path40"
       d="m 27.172553,123.63746 c 3.000001,1.50002 5.702,2.85196 8.839998,4.41997 C 39.116554,121.33943 94.609713,10.957686 97.529716,4.6297363 94.527713,3.1297174 91.825713,1.7777048 88.687715,0.20973 85.585713,6.9277647 30.092552,117.31144 27.172553,123.63746 Z"
       inkscape:connector-curvature="0" />
  </g>
</svg>
